resources/haticons/SVG/hd.svg

<!-- Generated by IcoMoon.io -->
<svg version="1.1" xmlns="http://www.w3.org/2000/svg" width="24" height="24" viewBox="0 0 24 24">
<title>hd</title>
<path d="M14.484 13.5v-3h2.016v3h-2.016zM12.984 9v6h4.031q0.422 0 0.703-0.281t0.281-0.703v-4.031q0-0.422-0.281-0.703t-0.703-0.281h-4.031zM11.016 15v-6h-1.5v2.484h-2.016v-2.484h-1.5v6h1.5v-2.016h2.016v2.016h1.5zM18.984 3q0.797 0 1.406 0.609t0.609 1.406v13.969q0 0.797-0.609 1.406t-1.406 0.609h-13.969q-0.844 0-1.43-0.586t-0.586-1.43v-13.969q0-0.844 0.586-1.43t1.43-0.586h13.969z"></path>
</svg>

<svg xmlns="http://www.w3.org/2000/svg" width="24" height="24"><path d="M14.484 13.5v-3H16.5v3h-2.016zm-1.5-4.5v6h4.031q.422 0 .703-.281t.281-.703V9.985q0-.422-.281-.703t-.703-.281h-4.031zm-1.968 6V9h-1.5v2.484H7.5V9H6v6h1.5v-2.016h2.016V15h1.5zm7.968-12q.797 0 1.406.609t.609 1.406v13.969q0 .797-.609 1.406t-1.406.609H5.015q-.844 0-1.43-.586t-.586-1.43V5.014q0-.844.586-1.43t1.43-.586h13.969z"/></svg>
